X:29
T:A Long Time Ago (Sharpe)
M:6/8
L:1/8
Q:1/4=3D100
K:G
D|\
G2G (B>A)G|(GF)E D2F/F/|(G3 A>GA)|B3 D2B|
c2c (cB)A|B2c d2c|B3 A2F|G3-G2||
D/D/|\
G2G B>AA|GFE D2E|E3 F2A|G3- G2||
